**kern
*staff1
*solos[solo1,solo2,solo3,solo4]
=1-
*clefG2
*k[]
*B-:
*M4/4
*>head1
{8B-/L
8c/
8B-/
8G/J
4r
8r
8B-/
=2
4d/
8f/L
8c/J
8r
8F/
8r
8d/
=3
8B-/L
8c/
8B-/
8G/J
8e-/L
8d/
8B-/
8A-/J
=4
8r
8g/
8r
8f/
8c/L
8A-/
8F#/
8G/J
=5
8f/L
8e-/
8B-/
8G/J
8B-/}
8r
8r
{[8d-/
=6
4d-/]
8B-/L
8G-/J
8c/L
8B-/
8G-/
8F/J
=7
4r
8r
8B-/
8A/
8r
8r
8c/
=8
8f#/L
8e/J
12B/L
12G#/
12d#/J
4r
8r
8c#/
=9
8c/L
8G/J
8r
8A/
8c/L
8B-/
8A/
8G/J
=10
8G-/L
8B-/
8c/
8d/J
8e-/L
8c/
8d/
8e-/J
=11
24d/LL
24e-/
24d/JJ
8B-/L
8e-/
8B-/J
8d/L
8e-/J
24d/LL
24e-/
24d/JJ
8B-/
=12
4e-/}
4r
2r
=13
4e-/
4r
8r
*>solo1
{4.d/
=14:|!
4b-\
4r
24a-/LL
24b-/
24a-/JJ
8f/L
8e-/
8B-/J
=15||
8c/L
8d-/
8B-/
8G/J
8c/L
8B-/J
12c/L
12e-/
12g-/J
=16
8f/L
8e-/
8d/
8c/J
8B-/L
8A/
8A-/
8c/J
=17
8b-/L
8g-/
8d/
8B-/J
8c/L
8A-/
8F/
8B-/J
=18
8G/L
8B-/
8c/
8f/J
4e-/}
4r
=19
1r
=20
8r
{8f#/
12g\L
12b-\
12dd\J
8ff\L
8ee-\
8dd\
8cc\J
=21
8b/L
8d/
8f/
8g/J
8a-/L
16b-/L
16a-/J
8g/
8f/J
=22
8e-/L
8G/
8B-/
8e-/J
8d/L
8c/
8B-/
8G/J
=23
8A/L
[8f/J
2f/]
8c/L
[8f/J
=24
2f/]
8c#/L
[8f/J
4f/]
=25
8d/L
[8f/J
4f/]}
2r
=26
8r
*>solo2
{8A/
12B-/L
12d/
12f/J
8b-/L
8a-/
8g/
8f/J
=27||
8e-/L
8A/
8B-/
8c/J
8d-/L
8B-/
8G/
8A/J
=28
8c/L
8B-/
8A/
8B-/J
12d/L
12d#/
12e/J
8f/L
8g/J
=29
8a-/L
8c/
8B/
8c/J
8g/L
8g-/
8e/
8A/J
=30
8B/L
16c#/L
16B/J
8A-/
8G-/J
8Gn/L
8f/
8e-/
8G/J
=31
8B-/L
8d-/
8B-/
8G/J
8c/L
8A/J
12B-/L
12dn/
12f/J
=32
12a\L
12b-\
12bn\J
8cc/L
8a/J
8b-/L
8a/
8g/
8g-/J
=33
8f/L
8e-/
8d/
8c/J
8B/L
8a-/
8g/
8f/J
=34
8e-/L
8G/J
8r
8e-/
8d/L
8c/
8B-/
8G/J
=35
4A/}
4r
4r
{12f/L
12g/
12b-/J
=36
[4dd\
12dd\L]
12ff\
12ee-\J
8dd\L
8b-\J}
4r
=37
2r
8r
*>solo3
{16b-\LL
16b-\J
8b-\
[8ee\J
=38
8ee\L]
[8ee-\
8ee-\]
[8dd-\J
24dd-\LL]
24ee-\
24dd-\JJ
8b-\L
8cc\
8b-\J}
=39||
4r
8r
{[8a-/
24a-/LL]
24b-/
24a-/JJ
8f/L
8e-/
8B-/J
=40
8c#/L
8e/
8B-/
8G/J
8cn/L
8F/J
12c/L
12e-/
12g/J
=41
8b-/L
8g-/
8e/
8B-/J
8Bn/L
8d-/
8A-/
8G-/J
=42
8G/L
8f/
8e-/
8G/J
8B-/L
8d-/
8B-/
8G/J
=43
8c/L
8A/J
12B-/L
12d/
12f/J
12a\L
12b-\
12bn\J
8cc/L
8a/J
=44
4ff\
8cc/L
8f/J
2cc\}
=45
2r
{8r
8dd\L
8ee-\
8ff\J
=46
8dd\L
8cc\J}
4r
4r
8r
{24dd\LL
24dd-\
24cc\JJ
=47
8b/L
8g/
8e-/
8c/J
8b-/L
8g/
8a/
8cc/J
=48
12b-\L
12cc\
12b-\J
8g-/L
8f/J}
4r
8r
*>solo4
{[8b-\
=49
8b-\L]
16cc\L
16b-\J
8a\
8g\J
8f/L
8e-/
8d/
8c/J
=50
4b-\
12f/L
12e/
12f/J
4f#/
8r
[8fn/
=51||
8f/L]
8A/
8B-/
8e-/J
8c/L
8c#/
8d/
8c#/J
=52
8c/L
8B/
8B-/
8A/J
8A-/L
8c/
8g/
[8f/J
=53
8f/]}
8r
4r
8r
{8B-/
12G/L
12A-/
12B-/J
=54
12G/L
12A-/
12B-/J
12G/L
12A-/
12B-/J
12c#/L
12d/
12e-/J
12f/L
12f#/
12g/J
=55
12a-/L
12an/
12b-/J
4a-/
8r
8g-/L
8e-/
8en/J
=56
8f/L
8e-/J
12d/L
12f/
12a/J
8cc/L
8b-/
8a/
8g/J
=57
8f/L
8e-/
8d/
8c/J
8B/L
8a-/
8g/
8f/J
=58
8e-/L
8G/
8c/
8e-/J
8d/L
8c/
8B-/
8G/J
=59
4A/}
4r
{8f/L
8g/
8b-/
[8dd/J
=60
4dd\]
4b-\
4r
8f/L
8g/J
=61
8b-\L
[8dd\J
4dd\]
8b-\L
8cc\
8b-\
8g\J
=62
4b-\}
4r
2r
==
*-
